X: 27508
T: Mom's
R: jig
M: 6/8
K: Adorian
|:EAA AGA|BAA A2G|EAA ABc|B/c/dc BAG|
EAA AGA|BAA agf|~g3 gfe|dBG BAG:|
AaA g2g|fed edB|Aaf g2e|dBG BAG|
AaA g2g|fed efg|agf g2e|dBG BAG||
|:E3 ABc|B2A A2G|E3 ABc|B/c/dc BAG|
[1 E3 ABc|B2A AEF|~G3 GFE|DBG BAG:|
[2 E3 ABc|B2A agf|~g3 gfe|dBG BAG||

